X:109
T:Bon Ton THO4.109
M:2/4
L:1/8
Z:vmp. Peter Dunk 2010/11.from a transcription by Fynn Titford-Mock 2007
B:Thompson's Compleat Collection of 200 Favourite Country Dances Volume IV.
Q:1/4=120
K:A
f/g/a/f/ dd|TedTed| f/g/a/f/ dd|eAAz|\
f/g/a/f/ dd|d'c'ba|^gbeg|aAAz:|
|:afba|gfef|geag|fede|f/g/a/f/ dd|TedTed|gfef|dDDz:|
